X:107
T:Glin Cottage* (polka), The 
T:Green Cottage
B:CRE2.130 (gan ainm)
F:file ID: cre.2/107g_cott
S:Tom Barrett (Clonmel)
N:There are a number of tunes in this family.
Q:120
L:1/8
M:2/4
R:polka
K:Em
B/A/|GE EE|B,E EF|GE EF|GA B/c/B/A/|
GE EE|B,E Ee|eB BA|1 GF E:|2 GF E2||
|:e ee|Be e>d|Be ef|gf ef|
ge fd|eB d>B|AD DE|FA BB/A/:|

%%%

